X:1
T:Goodnight Sweetheart
T:Goodnight Sweetheart
T:unknown
C:Jimmy Campbell, Reginald Connelly, Ray Noble
Z:All Rights Reserved
L:1/4
M:4/4
K:C
V:1 treble nm="Electric Piano"
%%MIDI program 4
V:1
"C" E2 E2 | ^D E3 | ^D E D E | F2 E2 |"G7" G2 G2 | ^F G3 | ^F G F G | A2 G2 |"Am" c2 c2 | B c2 c | %10
w: Good- night|sweet- heart|all my pray's are|for you|good- night|sweet- heart|I'll be watch- ing|o'er you|tears and|part- ing may|
"Dm" c A F D- | D4 |"Cmaj7" B G E C- | C3 C |"Dm7" A F D"G7" B,- | B, G ^F =F |"C" E2 E2 | ^D E3 | %18
w: make us for- lorn||but with the dawn|* a|new day is born|* (so I'll say)|good- night|sweet- heart|
 ^D E D E |"C" F2 E2 |"G7" G2 G2 | ^F G3 | ^F G F G | A2 G2 |"Am" c2 c2 | B c3 |"D7" e c B c | %27
w: sleep will ban- ish|sor- row|good- night|sweet- heart|till we meet to-|mor- row|dreams en-|fold you|in them dear I'll|
 B A3 |"C" G2 G2 |"G7" ^F G2 e |"C" c4- | c z z2 |] %32
w: hold you|good- night|sweet- heart good-|night.-||

